Obsidian/status/22s/zeal-panel.svg

<svg height="22" width="22" xmlns="http://www.w3.org/2000/svg"><g fill="#d3dae3"><path d="m4.8854168 3.0000003c-.4905209 0-.8854167.3568-.8854167.8v14.4000007c0 .443199.3948958.799999.8854167.799999h2.1145831v-15.9999997z" opacity=".3"/><path d="m6.9999999 3.0000002v15.9999998h10.1250001c.48475 0 .875-.357582.875-.800781v-14.3984375c0-.4432-.39025-.8007813-.875-.8007813h-6.134765zm2.5 3h6.0000001a.50005.50005 0 0 1 .416016.7773438l-5.482422 8.222656h5.066406a.50005.50005 0 1 1 0 1h-6.0000001a.50005.50005 0 0 1 -.416015-.777344l5.4824211-8.2226558h-5.0664061a.50005.50005 0 1 1 0-1z"/></g></svg>

<svg xmlns="http://www.w3.org/2000/svg" width="22" height="22" version="1.1">
 <defs>
  <style id="current-color-scheme" type="text/css">
   .ColorScheme-Text { color:#d3dae3; } .ColorScheme-Highlight { color:#5294e2; }
  </style>
 </defs>
 <path style="opacity:0.3;fill:currentColor" class="ColorScheme-Text" d="m 4.8854168,3.0000003 c -0.4905209,0 -0.8854167,0.3568 -0.8854167,0.8 l 0,14.4000007 C 4.0000001,18.6432 4.3948959,19 4.8854168,19 l 2.1145831,0 0,-15.9999997 z"/>
 <path style="fill:currentColor" class="ColorScheme-Text" d="M 6.9999999,3.0000002 6.9999999,19 17.125,19 C 17.60975,19 18,18.642418 18,18.199219 L 18,3.8007815 c 0,-0.4432 -0.39025,-0.8007813 -0.875,-0.8007813 l -6.134765,0 -3.9902351,0 z m 2.5,3 6.0000001,0 A 0.50005,0.50005 0 0 1 15.916016,6.777344 L 10.433594,15 15.5,15 a 0.50005,0.50005 0 1 1 0,1 l -6.0000001,0 a 0.50005,0.50005 0 0 1 -0.416015,-0.777344 l 5.4824211,-8.2226558 -5.0664061,0 a 0.50005,0.50005 0 1 1 0,-1 z"/>
</svg>
